img/papers/slider/button-prev.svg

<svg width="60" height="60" viewBox="0 0 60 60" fill="none" xmlns="http://www.w3.org/2000/svg">
<path opacity="0.4" fill-rule="evenodd" clip-rule="evenodd" d="M30 60C46.5685 60 60 46.5685 60 30C60 13.4315 46.5685 0 30 0C13.4315 0 0 13.4315 0 30C0 46.5685 13.4315 60 30 60ZM25.3052 30L32.7203 37.3779C33.0932 37.749 33.0932 38.3506 32.7203 38.7217C32.3474 39.0928 31.7429 39.0928 31.37 38.7217L23.2797 30.6719C22.9068 30.3008 22.9068 29.6992 23.2797 29.3281L31.37 21.2783C31.7429 20.9072 32.3474 20.9072 32.7203 21.2783C33.0932 21.6494 33.0932 22.251 32.7203 22.6221L25.3052 30Z" fill="white"/>
</svg>

<svg width="60" height="60" fill="none" xmlns="http://www.w3.org/2000/svg"><path opacity=".4" fill-rule="evenodd" clip-rule="evenodd" d="M30 60c16.569 0 30-13.431 30-30C60 13.431 46.569 0 30 0 13.431 0 0 13.431 0 30c0 16.569 13.431 30 30 30Zm-4.695-30 7.415 7.378a.947.947 0 0 1 0 1.344.958.958 0 0 1-1.35 0l-8.09-8.05a.947.947 0 0 1 0-1.344l8.09-8.05a.958.958 0 0 1 1.35 0 .947.947 0 0 1 0 1.344L25.305 30Z" fill="#fff"/></svg>
